contributed-vectors/days_counter.svg

<svg xmlns="http://www.w3.org/2000/svg" xml:space="preserve" style="fill-rule:evenodd;clip-rule:evenodd;stroke-linejoin:round;stroke-miterlimit:2" viewBox="0 0 192 192"><path d="M164.5 21.5c0-5.519-4.481-10-10-10h-133c-5.519 0-10 4.481-10 10v133c0 5.519 4.481 10 10 10h133c5.519 0 10-4.481 10-10v-133Z" style="fill:#54688c" transform="translate(7.512 7.825)"/><path d="M90.707 135.433c-19.458-2.591-34.49-19.27-34.49-39.433 0-21.957 17.826-39.783 39.783-39.783 21.193 0 38.537 16.607 39.719 37.508h-6.405c-1.171-17.37-15.65-31.116-33.314-31.116-18.429 0-33.391 14.962-33.391 33.391 0 16.628 12.182 30.434 28.098 32.973v6.46Z" style="fill:#fff" transform="translate(23.745 23.71) scale(.75257)"/><path d="M129.314 95.542h6.405v3.306h-6.405z" style="fill:#fff" transform="matrix(.75257 0 0 7.63467 23.745 -629.037)"/><path d="M129.314 95.542h6.405v3.306h-6.405z" style="fill:#fff" transform="matrix(0 -.75257 8.81982 0 -745.938 222.952)"/><path d="M129.314 95.542h6.405v3.306h-6.405z" style="fill:#fff" transform="matrix(.75257 0 0 5.20583 -2.982 -413.583)"/><path d="M129.314 95.542h6.405v3.306h-6.405z" style="fill:#fff" transform="matrix(.48374 -.5765 4.44416 3.72909 -392.824 -180.738)"/></svg>

<?xml version="1.0" encoding="UTF-8" standalone="no"?>
<!DOCTYPE svg PUBLIC "-//W3C//DTD SVG 1.1//EN" "http://www.w3.org/Graphics/SVG/1.1/DTD/svg11.dtd">
<svg width="100%" height="100%" viewBox="0 0 192 192" version="1.1" xmlns="http://www.w3.org/2000/svg" xmlns:xlink="http://www.w3.org/1999/xlink" xml:space="preserve" xmlns:serif="http://www.serif.com/" style="fill-rule:evenodd;clip-rule:evenodd;stroke-linejoin:round;stroke-miterlimit:2;">
    <g id="Layer1">
        <g transform="matrix(1,0,0,1,7.51194,7.82514)">
            <path d="M164.5,21.5C164.5,15.981 160.019,11.5 154.5,11.5L21.5,11.5C15.981,11.5 11.5,15.981 11.5,21.5L11.5,154.5C11.5,160.019 15.981,164.5 21.5,164.5L154.5,164.5C160.019,164.5 164.5,160.019 164.5,154.5L164.5,21.5Z" style="fill:rgb(84,104,140);"/>
        </g>
        <g transform="matrix(0.75257,0,0,0.75257,23.7453,23.7101)">
            <path d="M90.707,135.433C71.249,132.842 56.217,116.163 56.217,96C56.217,74.043 74.043,56.217 96,56.217C117.193,56.217 134.537,72.824 135.719,93.725L129.314,93.725C128.143,76.355 113.664,62.609 96,62.609C77.571,62.609 62.609,77.571 62.609,96C62.609,112.628 74.791,126.434 90.707,128.973L90.707,135.433Z" style="fill:white;"/>
            <g transform="matrix(1,0,0,10.1448,0,-867.357)">
                <rect x="129.314" y="95.542" width="6.405" height="3.306" style="fill:white;"/>
            </g>
            <g transform="matrix(6.12323e-17,-1,11.7196,7.17617e-16,-1022.74,264.748)">
                <rect x="129.314" y="95.542" width="6.405" height="3.306" style="fill:white;"/>
            </g>
            <g transform="matrix(1,0,0,6.9174,-35.5153,-581.066)">
                <rect x="129.314" y="95.542" width="6.405" height="3.306" style="fill:white;"/>
            </g>
            <g transform="matrix(0.642788,-0.766044,5.90531,4.95514,-553.529,-271.666)">
                <rect x="129.314" y="95.542" width="6.405" height="3.306" style="fill:white;"/>
            </g>
        </g>
    </g>
</svg>
